symbolic/32x32/apps/com.github.kmal-kenneth.monilet.svg

<svg xmlns="http://www.w3.org/2000/svg" width="32" height="32" version="1">
 <rect style="opacity:0.2" width="28" height="28" x="2" y="3" rx="1.4" ry="1.4"/>
 <rect style="fill:#585c75" width="28" height="28" x="2" y="2" rx="1.4" ry="1.4"/>
 <path style="opacity:0.3;fill:none;stroke:#000000;stroke-width:3;stroke-linecap:round;stroke-linejoin:round" d="M 9.9884689,23.010541 A 8.5,8.5 0 0 1 8.1501652,13.737048 8.5,8.5 0 0 1 16.02113,8.5001626 a 8.5,8.5 0 0 1 7.843436,5.2780254 8.5,8.5 0 0 1 -1.886834,9.263741"/>
 <path style="opacity:0.2;fill:none;stroke:#000000;stroke-width:3;stroke-linecap:round;stroke-linejoin:round" d="M 9.9884689,24.01085 A 8.5,8.5 0 0 1 7.881207,15.479839 8.5,8.5 0 0 1 14.449875,9.6427758"/>
 <path style="fill:none;stroke:#5cddbe;stroke-width:3;stroke-linecap:round;stroke-linejoin:round" d="M 9.9884689,23.010541 A 8.5,8.5 0 0 1 7.881207,14.47953 8.5,8.5 0 0 1 14.449875,8.6424668"/>
 <path style="fill:#ffffff;opacity:0.1" d="M 3.4003906 2 C 2.6247906 2 2 2.6247906 2 3.4003906 L 2 4.4003906 C 2 3.6247906 2.6247906 3 3.4003906 3 L 28.599609 3 C 29.375209 3 30 3.6247906 30 4.4003906 L 30 3.4003906 C 30 2.6247906 29.375209 2 28.599609 2 L 3.4003906 2 z"/>
 <path style="opacity:0.2;fill:#ffffff;fill-rule:evenodd" d="M 14.429688 7.1386719 A 1.50015 1.50015 0 0 0 14.175781 7.1679688 C 10.52747 7.8441431 7.5495192 10.49161 6.4492188 14.035156 C 6.1025807 15.151513 5.9839348 16.297988 6.0332031 17.429688 C 6.078838 16.626786 6.2045171 15.823224 6.4492188 15.035156 C 7.5495192 11.49161 10.52747 8.8441431 14.175781 8.1679688 A 1.50015 1.50015 0 0 1 14.429688 8.1386719 A 1.50015 1.50015 0 0 1 15.884766 9.1386719 A 1.50015 1.50015 0 0 0 14.429688 7.1386719 z M 9.0292969 17.517578 C 8.8906885 19.511318 9.5976694 21.498059 11.048828 22.949219 A 1.50015 1.50015 0 0 1 11.421875 23.53125 A 1.50015 1.50015 0 0 0 11.048828 21.949219 C 9.8411756 20.741566 9.1509757 19.162286 9.0292969 17.517578 z"/>
</svg>

<svg xmlns="http://www.w3.org/2000/svg" width="32" height="32" version="1"><rect style="opacity:.2" width="28" height="28" x="2" y="3" rx="1.4" ry="1.4"/><rect style="fill:#585c75" width="28" height="28" x="2" y="2" rx="1.4" ry="1.4"/><path style="opacity:.3;fill:none;stroke:#000;stroke-width:3;stroke-linecap:round;stroke-linejoin:round" d="M9.988 23.01a8.5 8.5 0 0 1-1.838-9.273A8.5 8.5 0 0 1 16.021 8.5a8.5 8.5 0 0 1 7.844 5.278 8.5 8.5 0 0 1-1.887 9.264"/><path style="opacity:.2;fill:none;stroke:#000;stroke-width:3;stroke-linecap:round;stroke-linejoin:round" d="M9.988 24.01a8.5 8.5 0 0 1-2.107-8.53 8.5 8.5 0 0 1 6.569-5.837"/><path style="fill:none;stroke:#5cddbe;stroke-width:3;stroke-linecap:round;stroke-linejoin:round" d="M9.988 23.01a8.5 8.5 0 0 1-2.107-8.53 8.5 8.5 0 0 1 6.569-5.838"/><path style="fill:#fff;opacity:.1" d="M3.4 2C2.625 2 2 2.625 2 3.4v1C2 3.625 2.625 3 3.4 3h25.2c.775 0 1.4.625 1.4 1.4v-1c0-.775-.625-1.4-1.4-1.4H3.4z"/><path style="opacity:.2;fill:#fff;fill-rule:evenodd" d="M14.43 7.139a1.5 1.5 0 0 0-.254.029 10.005 10.005 0 0 0-7.727 6.867 9.948 9.948 0 0 0-.416 3.395 9.948 9.948 0 0 1 .416-2.395 10.005 10.005 0 0 1 7.727-6.867 1.5 1.5 0 0 1 .254-.03 1.5 1.5 0 0 1 1.455 1 1.5 1.5 0 0 0-1.455-2zm-5.4 10.379a6.98 6.98 0 0 0 2.019 5.431 1.5 1.5 0 0 1 .373.582 1.5 1.5 0 0 0-.373-1.582 6.98 6.98 0 0 1-2.02-4.431z"/></svg>
